X:1
T:Title
%%score { ( 1 3 ) | ( 2 4 ) }
L:1/8
Q:1/4=100
M:4/4
K:Ab
V:1 treble nm="Grand Piano"
V:3 treble 
V:2 bass 
V:4 bass 
V:1
 [CA][CA][CA][CA] [CA][CE][A,C][CE] | [CA]2 [DA]2 [CA]4 | cccc dcBA | G2 A2 [GB]4 | cccc ecBA | %5
w: Mrs.~C.~H.~Morris * * * * * * *|||||
 [FB]2 [Fc]2 [Fd]4 | EEEE F2 E2 |[M:7/8] [CE]2 [CA]- [CA]- [CA]3 |[M:1/8] [CE] |[M:4/4] A2 A2 z4 | %10
w: |||||
 cA[FA][DF] [CE]3 [CA] | B3 B A2 B2 | c2 e4- ec | e2 e2 z4 | [FB]2 [FA]2 z4 | z z/ A,/ A,A c2 A2 | %16
w: ||||||
 B4 [CA]4 |] %17
w: |
V:2
 [A,,A,][A,,A,][A,,A,][A,,A,] [A,,A,][A,,A,][A,,E,][A,,E,] | [A,,E,]2 [A,,F,]2 [A,,E,]4 | %2
 [A,E][A,E][A,E][A,E] [B,EG][A,EA][K:bass][G,B,E][F,B,=D] | [E,B,E]2 [E,CE]2 [E,E]4 | %4
 [A,EA][A,EA][A,EA][A,EA] [A,CA][A,EA][K:bass][A,DE][A,CE] | [D,B,]2 [C,A,]2 [B,,B,]4 | %6
 [E,G,D][E,G,D][E,G,D][E,G,D] [E,G,D]2 [E,G,D]2 |[M:7/8] [A,,A,]2 [A,,E,]- [A,,E,]- [A,,E,]3 | %8
[M:1/8] [A,,A,] |[M:4/4] [A,,E,][A,,E,][A,,F,][A,,F,] [A,,E,]3 [E,G,E] | %10
 [A,E][A,CE][D,D][D,A,] [A,,A,]3 [A,,A,] | [E,G,E]3 [E,G,E] [E,F,E]2 [E,G,E]2 | %12
 [A,E]2 [A,CE]4- [A,CE][A,E] | A2 A2 z4[K:bass] | [D,A,]D,D,D, [D,A,D]3 [D,A,D] | C4 z4 | %16
 [E,G,D]4 [A,,A,]4 |] %17
V:3
 x8 | x8 | x8 | x8 | x8 | x8 | x8 |[M:7/8] x7 |[M:1/8] x |[M:4/4] CCDD [CA]3 B | x8 | x8 | x8 | %13
 z C z C e3 c | z A,DD F3 F | E4 z4 | x8 |] %17
V:4
 x8 | x8 | x6[K:bass] x2 | x8 | x6[K:bass] x2 | x8 | x8 |[M:7/8] x7 |[M:1/8] x |[M:4/4] x8 | x8 | %11
 x8 | x8 | [A,C]A,[A,C]A, [A,CA]3[K:bass] [A,E] | x8 | [E,A,]>E, E,[E,A,C] [E,A,E]2 [E,A,C]2 | %16
 x8 |] %17

